X: 1349
T:Junior Crehan's
R:Hornpipe
S:Liam O'Flynn (pipes)
D:Tape of concert, Belfast 1987
Z:Bernie Stocks
M:4/4
K:G
G2GE GABd | edef gedg | edef gedB | A3B {d}BAGE | G2GE GABd |
edef gedg | (3efgdc BGAF | G2GF G4 || ~g3b a2ga | bgaf gedg |
edef gedB | BAAG A2de | ~g3b a2ga | bgaf gedg | (3efgdc BGAF | G2GF G4 ||
